!!!COM: Haydn, Franz Joseph
!!!ONM: Opus 09, No. 2
!!!OTL:
!!!OMV: 1
!!!SCT: H /disk/dos2/musedata_2000/haydn/traut/quart/op09n2/stage1/01
!!!SCA: Thematisch-bibliographisches Werkevererzeichnis (A. van Hoboken)
!!!YOR: Trautwein Edition
!!!EED: Frances Bennion
!!!ENC: Frances Bennion
!!!CDT: 1732/3/31/-1809/5/31/
!!!OCY: Österreich
!!!YEC: Copyright (c) 1994, 2000 Center for Computer Assisted Research in the Humanities
!!!YEM: Rights to all derivative editions reserved.
!!!YEM: Refer to licensing agreement for further details.
!!!YEN: United States of America
**kern	**kern	**kern	**kern
*k[b-e-a-]	*k[b-e-a-]	*k[b-e-a-]	*k[b-e-a-]
*E-:	*E-:	*E-:	*E-:
*clefG	*clefG	*clefC3	*clefF4
*M4/4	*M4/4	*M4/4	*M4/4
*tb96	*tb96	*tb96	*tb96
=0-	=0-	=0-	=0-
2..r	2..r	2..r	2..r
8e-	8r	8r	8r
=1	=1	=1	=1
8g	4G 4e-	4B-	4E-
8b-	.	.	.
8ee-	4r	4r	4r
8gg	.	.	.
8bb-	4e- 4G	4B-	4E-
8gg	.	.	.
8ee-	4r	4r	4r
8b-	.	.	.
=2	=2	=2	=2
8a-	4f 4B-	4B-	4D
8f	.	.	.
8d	4r	4r	4r
8B-	.	.	.
8G	4G 4e-	4B-	4E-
8B-	.	.	.
8e-	4r	4r	4r
8g	.	.	.
=3	=3	=3	=3
8c	4.r	8A-	1r
8a-	.	8r	.
8d	.	8B-	.
8b-	8d	8r	.
4a-	4f	4.E-	.
8g	8e-	.	.
8e-	8r	8r	.
=4	=4	=4	=4
8g	4G 4e-	4B-	4E-
8b-	.	.	.
8ee-	4r	4r	4r
8gg	.	.	.
8bb-	4e- 4G	4B-	4E-
8gg	.	.	.
8ee-	4r	4r	4r
8b-	.	.	.
=5	=5	=5	=5
8cc	8c	8F	8AA-
8f	8r	8r	8r
8a-	8d	8F	8BB-
8d	8r	8r	8r
8e-	8e-	8G	4E-
4.r	4r	4r	.
.	.	.	4r
.	8B-	8G	.
=6	=6	=6	=6
1r	2B-	2G	8EE-
.	.	.	8E-
.	.	.	8E-
.	.	.	8E-
.	2d-	2B-	8EE-
.	.	.	8E-
.	.	.	8E-
.	.	.	8E-
=7	=7	=7	=7
1r	2c	2A-	8EE-
.	.	.	8E-
.	.	.	8E-
.	.	.	8E-
.	2d 2A-	2F	8EE-
.	.	.	8E-
.	.	.	8E-
.	.	.	8E-
=8	=8	=8	=8
8r	2G 2e-	2G	[1E-
8ee-	.	.	.
8ee-	.	.	.
16dd	.	.	.
16cc	.	.	.
8b-	2d-	2B-	.
8g	.	.	.
8f	.	.	.
8e-	.	.	.
=9	=9	=9	=9
8e-	2c	2A-	1E-]
8ee-	.	.	.
8ee-	.	.	.
16dd	.	.	.
16cc	.	.	.
4b-	2d 2A-	2F	.
8a-	.	.	.
16g	.	.	.
16f	.	.	.
=10	=10	=10	=10
8e-	4G 4e-	4G	4E-
16.b-	.	.	.
32cc	.	.	.
16.b-	4.r	4.r	4.r
32cc	.	.	.
16.b-	.	.	.
32cc	.	.	.
8b-	.	.	.
8gg	8b-	4B-	8E-
8ff	8a-	.	8F
8ee-	8g	8B-	8G
=11	=11	=11	=11
8dd	4f	4B-	4A-
16.b-	.	.	.
32cc	.	.	.
16.b-	4.r	4.r	4.r
32cc	.	.	.
16.b-	.	.	.
32cc	.	.	.
8b-	.	.	.
8aa-	8ff	4B-	8D
8gg	8ee-	.	8E-
8ff	8dd	8B-	8F
=12	=12	=12	=12
8ee-	4ee-	4B-	4G
16.b-	.	.	.
32cc	.	.	.
16.b-	4.r	4.r	4.r
32cc	.	.	.
16.b-	.	.	.
32cc	.	.	.
8b-	.	.	.
8bb-	8gg	4B-	8E-
8aa-	8ff	.	8F
8gg	8ee-	8B-	8G
=13	=13	=13	=13
[2ff	2ee-	2c	4A-
.	.	.	4A
16ff]	16dd	2B-	4.B-
16gg	16ee-	.	.
16aa-	16ff	.	.
16gg	16ee-	.	.
8aa-	8ff	.	.
16gg	16ee-	.	8BB-
16ff	16dd	.	.
=14	=14	=14	=14
8ee-	8ee-	8G	8E-
8ee-	8ee-	8e-	8E-
8b-	8b-	8B-	8BB-
8g	8g	8G	8GG
4e-	4e-	4E-	4EE-
4r	4r	4r	4r
=15	=15	=15	=15
4gg	4r	8r	3..r
.	.	8G	.
4b	[6..g	8d	.
.	.	8f	.
4cc	.	4e-	.
.	48g]	.	.
.	16ee-	.	.
.	.	.	24r
.	16gg	.	8C
.	16ff	.	.
4r	16ee-	4r	8c
.	16dd	.	.
.	16cc	.	8E-
.	16b-	.	.
=16	=16	=16	=16
4ff	4a	8r	4F
.	.	8F	.
4a	[6..f	8c	4.r
.	.	8e-	.
8b-	.	4d	.
.	48f]	.	.
.	16dd	.	.
8.bb-	16ff	.	8BB-
.	16ee-	.	.
.	4dd	8f	[4B-
16aa	.	.	.
16gg	.	8B-	.
16ff	.	.	.
=17	=17	=17	=17
4.ee-	4g	[2c	8B-]
.	.	.	8c
.	4.f	.	4A
8ff	.	.	.
4ee-	.	4c]	4B-
.	8B-	.	.
8dd	8b-	8B-	4BB-
8ff	8a-	8d	.
=18	=18	=18	=18
4ff	2g	4e-	4E-
16ee-	.	4c	8r
16dd	.	.	.
16cc	.	.	8E
16b-	.	.	.
4b-	4c	4c	8F
.	.	.	8FF
8a	4r	8r	8F
8r	.	8f	8E-
=19	=19	=19	=19
8r	4r	8b-	4D
16b-	.	8B-	.
32a	.	.	.
32b-	.	.	.
8dd	4.b-	8r	8r
8d	.	8f	8BB-
8e-	.	4.e-	8C
16cc	8a	.	8CC
32b	.	.	.
32cc	.	.	.
8ee-	[4cc	.	8r
8e-	.	8g	8C
=20	=20	=20	=20
8f	8cc]	4.f	8D
16dd	8b-	.	8DD
32cc	.	.	.
32dd	.	.	.
8ff	4.dd	.	8r
8f	.	8a-	8D
8g	.	4.g	8E-
16ee-	8cc	.	8EE-
32dd	.	.	.
32ee-	.	.	.
8gg	8ee-	.	8r
8b-	8g	8c	8E
=21	=21	=21	=21
8a	8f	4c	4F
16aa	8cc	.	.
32gg	.	.	.
32aa	.	.	.
8ccc	8ee-	8r	8r
8ee-	8a	8c	8F
8dd	4b-	4B-	8B-
8ff	.	.	8BB-
8bb-	8r	4r	[4B-
16d	16b-	.	.
32c	32a	.	.
32d	32b-	.	.
=22	=22	=22	=22
8e-	8cc	8r	8B-]
8ee-	8c	16cc	8A
.	.	16b-	.
8r	8e-	4a	4.c
16e-	16cc	.	.
32d	32b-	.	.
32e-	32cc	.	.
8f	8dd	8r	.
8ff	8d	16dd	8B-
.	.	16cc	.
8r	8f	4b-	[4d
16f	16dd	.	.
32e-	32cc	.	.
32f	32dd	.	.
=23	=23	=23	=23
8g	8ee-	8r	8d]
8gg	8e-	16ee-	8c
.	.	16dd	.
8r	4g	8cc	4.e-
8gg	.	8b-	.
8a	4f	8cc	.
8b-	.	8b-	4d
[4ee-	4g	4g	.
.	.	.	8c
=24	=24	=24	=24
16.ee-]	4f	8c	8A
32ff	.	.	.
8..dd	.	4B-	8B-
.	4e-	.	8G
32ee-	.	.	.
8..cc	.	4A	8A
.	4d	.	8F
32dd	.	.	.
8..b-	.	4G	8G
.	4c	.	8E-
32cc	.	.	.
16.b-	.	8G	8E
32cc	.	.	.
=25	=25	=25	=25
16a	2c	2A	8F
16ccc	.	.	.
16aa	.	.	8F
16ff	.	.	.
16ee-	.	.	8F
16cc	.	.	.
16a	.	.	8F
16e-	.	.	.
16d	2d	[2B-	8F
16bb-	.	.	.
16ff	.	.	8F
16dd	.	.	.
16b-	.	.	8F
16f	.	.	.
16d	.	.	8F
16B-	.	.	.
=26	=26	=26	=26
16G	2e 2G	2B-]	8F
16bb-	.	.	.
16gg	.	.	8F
16ee	.	.	.
16cc	.	.	8F
16b-	.	.	.
16g	.	.	8F
16e	.	.	.
16A	2c 2e-	2A	8F
16ccc	.	.	.
16aa	.	.	8F
16ff	.	.	.
16ee-	.	.	8F
16cc	.	.	.
16a	.	.	8F
16e-	.	.	.
=27	=27	=27	=27
16d	4d	4B-	4BB-
16dd	.	.	.
16dd	.	.	.
32cc	.	.	.
32dd	.	.	.
16ff	4r	4r	4r
16ff	.	.	.
16ff	.	.	.
32ee	.	.	.
32ff	.	.	.
16bb-	4f	4d	4BB-
16bb-	.	.	.
16bb-	.	.	.
32aa	.	.	.
32bb-	.	.	.
16ddd	4r	4r	4r
16ddd	.	.	.
16ddd	.	.	.
32ccc	.	.	.
32ddd	.	.	.
=28	=28	=28	=28
2fff	8r	8r	8r
.	8b-	8b-	8D
.	8b-	8b-	8D
.	8b-	8b-	8D
2fff#	8r	8r	8r
.	8b-	8a-	8D
.	8b-	8a-	8D
.	8b-	8a-	8D
=29	=29	=29	=29
2ggg	8r	8r	8r
.	8b-	8g	8E-
.	8b-	8g	8E-
.	8b-	8g	8E-
4.bbb-	8r	8r	8r
.	8dd-	8g	8E
.	8dd-	8g	8E
8e	8e	8e	8E
=30	=30	=30	=30
4ff	8f	8f	8F
.	8d	8B-	8F
16ee-	8d	8B-	8F
16dd	.	.	.
16cc	8d	8B-	8F
16b-	.	.	.
2b-	8d	8B-	8F
.	8d	8B-	8F
.	8d	8B-	8F
.	8d	8B-	8F
=31	=31	=31	=31
4ff	8d-	8B-	8F
.	8d-	8B-	8F
16ee-	8d-	8B-	8F
16dd-	.	.	.
16cc	8d-	8B-	8F
16b-	.	.	.
2b-	8d-	8B-	8F
.	8d-	8B-	8F
.	8d-	8B-	8F
.	8d-	8B-	8F
=32	=32	=32	=32
[3..cc-	8d-	8A-	8F
.	8d-	8A-	8F
.	8d-	8A-	8F
.	8d-	8A-	8F
.	8d-	8A-	8F
24cc-]	.	.	.
8ee-	8d-	8A-	8F
8dd-	8d-	8A-	8F
8cc-	8d-	8A-	8F
=33	=33	=33	=33
8b-	4d-	2.B-	2.G-
4b-	.	.	.
.	4d	.	.
4b-	.	.	.
.	4e-	.	.
4b-	.	.	.
.	4e	4c	4G
8b-	.	.	.
=34	=34	=34	=34
24a	8f	8c	8F
24cc	.	.	.
24ee-	.	.	.
24cc	8c	8A	8F
24a	.	.	.
24f	.	.	.
24e-	8c	8A	8F
24f	.	.	.
24a	.	.	.
24cc	8c	8A	8F
24a	.	.	.
24f	.	.	.
24a	8c	8A	8F
24cc	.	.	.
24ee-	.	.	.
24cc	8c	8A	8F
24a	.	.	.
24f	.	.	.
24e-	8c	8A	8F
24f	.	.	.
24a	.	.	.
24cc	8c	8A	8F
24a	.	.	.
24f	.	.	.
=35	=35	=35	=35
24a	8c	8A	8E-
24cc	.	.	.
24ee-	.	.	.
24cc	8c	8A	8E-
24a	.	.	.
24f	.	.	.
24e-	8c	8A	8E-
24f	.	.	.
24a	.	.	.
24cc	8c	8A	8E-
24a	.	.	.
24f	.	.	.
24a	8c	8A	8E-
24cc	.	.	.
24ee-	.	.	.
24cc	8c	8A	8E-
24a	.	.	.
24f	.	.	.
24e-	8c	8A	8E-
24f	.	.	.
24a	.	.	.
24cc	8c	8A	8E-
24a	.	.	.
24e-	.	.	.
=36	=36	=36	=36
16d	4d	4B-	4D
16b-	.	.	.
16b-	.	.	.
32a	.	.	.
32b-	.	.	.
16dd	4r	4r	4r
16dd	.	.	.
16dd	.	.	.
32cc	.	.	.
32dd	.	.	.
16ff	4b-	4d	4D
16ff	.	.	.
16ff	.	.	.
32ee	.	.	.
32ff	.	.	.
16bb-	4r	4r	4r
16bb-	.	.	.
16bb-	.	.	.
32aa	.	.	.
32bb-	.	.	.
=37	=37	=37	=37
16ddd	8b-	8f	8BB-
16ddd	.	.	.
16ddd	8r	8r	8r
32ccc	.	.	.
32ddd	.	.	.
16fff	8b-	8B-	8D
16fff	.	.	.
16fff	8r	8r	8r
32eee	.	.	.
32fff	.	.	.
4.bbb-	4b-	4B-	4E-
.	4e	4e	4E
8e	.	.	.
=38	=38	=38	=38
2f	8f	8f	4F
.	8f	8d	.
.	8e-	8c	4r
.	8d	8B-	.
2cc	8r	8r	8F
.	8c	8A	8r
.	8r	8r	8F
.	8e-	8A	8r
=39	=39	=39	=39
8b-	8d	4B-	4BB-
4bb-	4dd	.	.
.	.	4.r	4.r
24gg	24ee-	.	.
24ff	24dd	.	.
24ee-	24cc	.	.
8dd	8b-	.	.
4b-	4b-	4b-	4B-
24g	24g	24g	24G
24e-	24e-	24e-	24E-
24c	24c	24c	24C
=40	=40	=40	=40
8B-	8B-	4B-	4BB-
4bb-	4dd	.	.
.	.	4.r	4.r
24gg	24ee-	.	.
24ff	24dd	.	.
24ee-	24cc	.	.
8dd	8b-	.	.
4b-	4b-	4b-	4B-
24B-	24B-	24B-	24BB-
24d	24d	24d	24D
24f	24f	24f	24F
=41	=41	=41	=41
8b-	8b-	8b-	8B-
24B-	24B-	24B-	24BB-
24d	24d	24d	24D
24f	24f	24f	24F
8b-	8b-	8b-	8B-
24B-	24B-	24B-	24BB-
24d	24d	24d	24D
24f	24f	24f	24F
4a-	4a-	4a-	4A-
8r	4r	4r	4r
8G	.	.	.
=42	=42	=42	=42
8B	1d	1B	8GG
8d	.	.	8GG
8g	.	.	8GG
8b	.	.	8GG
8dd	.	.	8GG
8ff#	.	.	8GG
8gg	.	.	8GG
8G	.	.	8GG
=43	=43	=43	=43
8c	[1e-	[1c	8GG
8e-	.	.	8GG
8g	.	.	8GG
8b	.	.	8GG
8cc	.	.	8GG
8ee-	.	.	8GG
8gg	.	.	8GG
8G	.	.	8GG
=44	=44	=44	=44
8A-	1e-]	1c]	8AA-
8c	.	.	8AA-
8e-	.	.	8AA-
8g	.	.	8AA-
8a-	.	.	8AA-
8cc	.	.	8AA-
8ee-	.	.	8AA-
8A-	.	.	8AA-
=45	=45	=45	=45
8A	1g-	1e-	8AA
8c	.	.	8AA
8e-	.	.	8AA
8g-	.	.	8AA
8a	.	.	8AA
8cc	.	.	8AA
8ee-	.	.	8AA
8A	.	.	8AA
=46	=46	=46	=46
8B-	1f	1d	8BB-
8d	.	.	8BB-
8f	.	.	8BB-
8b-	.	.	8BB-
8dd	.	.	8BB-
8ff	.	.	8BB-
8bb-	.	.	8BB-
8B-	.	.	8BB-
=47	=47	=47	=47
8B	1a-	1f	8BB
8d	.	.	8BB
8f	.	.	8BB
8a-	.	.	8BB
8b	.	.	8BB
8dd	.	.	8BB
8ff	.	.	8BB
8B	.	.	8BB
=48	=48	=48	=48
8c	1g	1e-	8C
8e-	.	.	8C
8g	.	.	8C
8cc	.	.	8C
8ee-	.	.	8C
8gg	.	.	8C
8ccc	.	.	8C
8G	.	.	8C
=49	=49	=49	=49
8A-	2.f#	1c	8AA-
8c	.	.	8AA-
8e-	.	.	8AA-
8a-	.	.	8AA-
8cc	.	.	8AA-
8ee-	.	.	8AA-
8aa-	[4d	.	8AA-
8f#	.	.	8AA-
=50	=50	=50	=50
8g	8d]	8B	8GG
8G	8G	8G	8GG
8B	8B	8B	8BB
8f#	8f#	8f#	8F#
8g	8g	8g	8G
4.r	4.r	4.r	4.r
=51	=51	=51	=51
4r	8r	3..r	4E-
.	8e-	.	.
[6..e-	8b-	.	4GG
.	8dd-	.	.
.	4cc	.	4AA-
48e-]	.	.	.
16cc	.	.	.
.	.	24r	.
16ee-	.	8A-	.
16dd-	.	.	.
16cc	4r	8c	4r
16b-	.	.	.
16a-	.	8e-	.
16g	.	.	.
=52	=52	=52	=52
4f	8r	4f	4F
.	8f	.	.
[6..f	8cc	4.r	4AA
.	8ee-	.	.
.	4dd	.	4BB-
48f]	.	.	.
16dd	.	.	.
16ff	.	8B-	.
16ee-	.	.	.
16dd	4r	8d	4r
16cc	.	.	.
16b-	.	8f	.
16a-	.	.	.
=53	=53	=53	=53
8g	2r	4g	4G
8g	.	.	.
8dd	.	4.r	4BB
8ff	.	.	.
4ee-	4gg	.	4C
.	.	8G	.
4r	4b	8d	4r
.	.	8f	.
=54	=54	=54	=54
4ccc	4cc	4e-	8r
.	.	.	8C
4ee	8b-	4c	8G
.	8g	.	8B-
4ff	[2a-	16f	16A-
.	.	16g	16B-
.	.	16a-	16c
.	.	16g	16B-
4r	.	16f	16A-
.	.	16e-	16G
.	.	16d	16F
.	.	16c	16E-
=55	=55	=55	=55
4bb-	4.a-]	2B-	8D
.	.	.	8BB-
4dd	.	.	8F
.	8f	.	8A-
8ee-	[2e-	4e-	4G
8ee-	.	.	.
8bb-	.	4G	4r
8ddd-	.	.	.
=56	=56	=56	=56
4ccc	16e-]	4A-	4A-
.	16cc	.	.
.	16ee-	.	.
.	16dd-	.	.
4.r	16cc	4r	4C
.	16b-	.	.
.	16a-	.	.
.	16g	.	.
.	4f	4d-	4D-
8dd-	.	.	.
8aa-	[4d-	4F	4r
8ccc	.	.	.
=57	=57	=57	=57
4bb-	16d-]	4G	4G
.	16b-	.	.
.	16dd-	.	.
.	16cc	.	.
4.r	16b-	4r	4BB-
.	16a-	.	.
.	16g	.	.
.	16f	.	.
.	4e	4c	4C
8cc	.	.	.
8gg	[4c	4E	4r
8bb-	.	.	.
=58	=58	=58	=58
4aa-	16c]	4F	4F
.	16a-	.	.
.	16cc	.	.
.	16b-	.	.
4.r	16a-	4r	4AA-
.	16g	.	.
.	16f	.	.
.	16e-	.	.
.	4d	4B-	4BB-
8b-	.	.	.
8ff	[4B-	4D	4r
8aa-	.	.	.
=59	=59	=59	=59
16gg	4B-]	4E-	4E-
16aa-	.	.	.
16bb-	.	.	.
16aa-	.	.	.
16gg	4r	[6..E-	4GG
16ff	.	.	.
16ee-	.	.	.
16dd	.	.	.
4cc	4cc	.	4AA-
.	.	48E-]	.
.	.	16c	.
.	.	16e-	.
.	.	16d-	.
[4cc	4e-	16c	4r
.	.	16B-	.
.	.	16A-	.
.	.	16G	.
=60	=60	=60	=60
16cc]	4f	4A-	4F
16aa-	.	.	.
16ccc	.	.	.
16bb-	.	.	.
16aa-	4r	[6..F	4AA-
16gg	.	.	.
16ff	.	.	.
16ee-	.	.	.
4dd	4dd	.	4BB-
.	.	48F]	.
.	.	16d	.
.	.	16f	.
.	.	16e-	.
[4dd	4f	16d	4r
.	.	16c	.
.	.	16B-	.
.	.	16A	.
=61	=61	=61	=61
16dd]	4g	4B-	4G
16bb-	.	.	.
16ddd	.	.	.
16ccc	.	.	.
16bb-	4r	[6..G	4BB-
16aa-	.	.	.
16gg	.	.	.
16ff	.	.	.
4ee-	4ee-	.	4C
.	.	48G]	.
.	.	16e-	.
.	.	16g	.
.	.	16f	.
4ee-	4g	16e-	4r
.	.	16d	.
.	.	16c	.
.	.	16B-	.
=62	=62	=62	=62
2aa-	8a-	8A-	8C
.	8e-	8e-	8C
.	8e-	8e-	8C
.	8e-	8e-	8C
2gg	8e-	8e-	8C
.	8e-	8e-	8C
.	8e-	8e-	8C
.	8e-	8e-	8C
=63	=63	=63	=63
16ff#	[1f# 1a	[1e-	[1C
16ccc	.	.	.
16aa	.	.	.
16ff#	.	.	.
16ee-	.	.	.
16cc	.	.	.
16a	.	.	.
16f#	.	.	.
16e-	.	.	.
16ccc	.	.	.
16aa	.	.	.
16ff#	.	.	.
16ee-	.	.	.
16cc	.	.	.
16a	.	.	.
16f#	.	.	.
=64	=64	=64	=64
16e-	2f# 2a_	2e-_	2C_
16ccc	.	.	.
16aa	.	.	.
16ff#	.	.	.
16ee-	.	.	.
16cc	.	.	.
16a	.	.	.
16f#	.	.	.
4e-	4f# 4a]	4e-]	4C]
4r	4r	4r	4r
=65	=65	=65	=65
8r	4g	4d	4BB-
16.d	.	.	.
32e-	.	.	.
16.d	4.r	4.r	4.r
32e-	.	.	.
16.d	.	.	.
32e-	.	.	.
8d	.	.	.
8dd	8b-	4d	8G
8cc	8a	.	8A
8b-	8g	8d	8B-
=66	=66	=66	=66
8a	4f#	4d	4c
16.d	.	.	.
32e-	.	.	.
16.d	4.r	4.r	4.r
32e-	.	.	.
16.d	.	.	.
32e-	.	.	.
8d	.	.	.
8cc	8a	4d	8F#
8b-	8g	.	8G
8a	8f#	8d	8A
=67	=67	=67	=67
8g	4g	4d	4B-
16.e-	.	.	.
32f	.	.	.
16.e-	4.r	4.r	4.r
32f	.	.	.
16.e-	.	.	.
32f	.	.	.
8e-	.	.	.
8dd-	4e-	8G	8B-
8cc	.	8A-	8A-
8b-	8e	8B-	8G
=68	=68	=68	=68
8a	4f	4c	4F
16.f	.	.	.
32g	.	.	.
16.f	4.r	4.r	4.r
32g	.	.	.
16.f	.	.	.
32g	.	.	.
8f	.	.	.
8ee-	4f	8A	8c
8dd	.	8B-	8B-
8cc	8f#	8c	8A
=69	=69	=69	=69
8b	4g	4d	4G
16.g	.	.	.
32a-	.	.	.
16.g	4.r	3..r	4.r
32a-	.	.	.
16.g	.	.	.
32a-	.	.	.
8g	.	.	.
8ff	4g	.	8d
8ee-	.	.	8c
.	.	24r	.
8dd-	8g	[8e-	8B-
=70	=70	=70	=70
[3cc	16.g	8e-]	2A-
.	32a-	.	.
.	16.g	8e	.
.	32a-	.	.
.	[3f	4.f	.
96cc]	.	.	.
32dd-	.	.	.
16.cc	.	.	.
32dd-	.	.	.
[3b-	.	.	2G
.	96f]	.	.
.	32g	.	.
.	16.f	8d	.
.	32g	.	.
.	[4e-	8e-	.
96b-]	.	.	.
32cc	.	.	.
16.b-	.	8B-	.
32cc	.	.	.
=71	=71	=71	=71
8.a-	8e-]	8c	4F
.	4d	8d	.
16b-	.	.	.
16.g	.	8e-	4E-
32a-	.	.	.
16.g	4c	8E-	.
32a-	.	.	.
8.f	.	8D	4D
.	4B-	8F	.
16g	.	.	.
16.e-	.	8G	4C
32f	.	.	.
16.e-	8A	8F	.
32f	.	.	.
=72	=72	=72	=72
8d	8B-	8F	8BB-
4b-	4d	8B-	8BB-
.	.	8B-	8BB-
24g	24e-	8B-	8BB-
24f	24d	.	.
24e-	24c	.	.
8d	8B-	8B-	8BB-
4b-	4d	8B-	8BB-
.	.	8B-	8BB-
24g	24e-	8B-	8BB-
24f	24d	.	.
24e-	24c	.	.
=73	=73	=73	=73
8d	8B-	8B-	8BB-
24B-	24B-	24B-	24BB-
24d	24d	24d	24D
24f	24f	24f	24F
8b-	8b-	8b-	8B-
24B-	24B-	24B-	24BB-
24d	24d	24d	24D
24f	24f	24f	24F
4a-	4a-	4a-	4A-
8r	4r	4r	4r
8e-	.	.	.
=74	=74	=74	=74
8g	4e- 4G	4B-	4E-
8b-	.	.	.
8ee-	4r	4r	4r
8gg	.	.	.
8bb-	4G 4e-	4B-	4E-
8gg	.	.	.
8ee-	4r	4r	4r
8b-	.	.	.
=75	=75	=75	=75
8a-	4B- 4f	4B-	4D
8f	.	.	.
8d	4r	4r	4r
8A-	.	.	.
8G	4G 4e-	4B-	4E-
8B-	.	.	.
8e-	4r	4r	4r
8g	.	.	.
=76	=76	=76	=76
8c	4.r	8A-	1r
8a-	.	8r	.
8d	.	8B-	.
8b-	8d	8r	.
4a-	4f	4.E-	.
8g	8e-	.	.
8e-	8r	8r	.
=77	=77	=77	=77
8g	4e- 4G	4B-	4E-
8b-	.	.	.
8ee-	4r	4r	4r
8gg	.	.	.
8bb-	4G 4e-	4B-	4E-
8gg	.	.	.
8ee-	4r	4r	4r
8b-	.	.	.
=78	=78	=78	=78
8cc	8c	8F	8AA-
8f	8r	8r	8r
8a-	8d	8F	8BB-
8d	8r	8r	8r
8e-	8e-	8G	4E-
4.r	4r	4r	.
.	.	.	4r
.	8B-	8G	.
=79	=79	=79	=79
1r	2B-	2G	8EE-
.	.	.	8E-
.	.	.	8E-
.	.	.	8E-
.	2d-	2B-	8EE-
.	.	.	8E-
.	.	.	8E-
.	.	.	8E-
=80	=80	=80	=80
1r	2c	2A-	8EE-
.	.	.	8E-
.	.	.	8E-
.	.	.	8E-
.	2d 2A-	2F	8EE-
.	.	.	8E-
.	.	.	8E-
.	.	.	8E-
=81	=81	=81	=81
8r	2e- 2G	2G	[1E-
8ee-	.	.	.
8ee-	.	.	.
16dd	.	.	.
16cc	.	.	.
8b-	2d-	2B-	.
8g	.	.	.
8f	.	.	.
8e-	.	.	.
=82	=82	=82	=82
8e-	2c	2A-	1E-]
8ee-	.	.	.
8ee-	.	.	.
16dd	.	.	.
16cc	.	.	.
4b-	2d 2A-	2F	.
8a-	.	.	.
16g	.	.	.
16f	.	.	.
=83	=83	=83	=83
8e-	4G 4e-	4G	4E-
16.b-	.	.	.
32cc	.	.	.
16.b-	4.r	4.r	4.r
32cc	.	.	.
16.b-	.	.	.
32cc	.	.	.
8b-	.	.	.
8gg	8b-	4B-	8E-
8ff	8a-	.	8F
8ee-	8g	8B-	8G
=84	=84	=84	=84
8dd	4f	4B-	4A-
16.b-	.	.	.
32cc	.	.	.
16.b-	4.r	4.r	4.r
32cc	.	.	.
16.b-	.	.	.
32cc	.	.	.
8b-	.	.	.
8aa-	8ff	4B-	8D
8gg	8ee-	.	8E-
8ff	8dd	8B-	8F
=85	=85	=85	=85
8ee-	4ee-	4B-	4G
16.b-	.	.	.
32cc	.	.	.
16.b-	4.r	4.r	4.r
32cc	.	.	.
16.b-	.	.	.
32cc	.	.	.
8b-	.	.	.
8bb-	8gg	4B-	8E-
8aa-	8ff	.	8F
8gg	8ee-	8B-	8G
=86	=86	=86	=86
16.ff	2cc	4c	4A-
32gg	.	.	.
16.aa-	.	.	.
32gg	.	.	.
16.ff	.	8A-	8AA-
32gg	.	.	.
16.ee-	.	8A	8AA
32ff	.	.	.
16.dd	8b-	8B-	2BB-
32ee-	.	.	.
16.cc	8a-	8c	.
32dd	.	.	.
16.b-	8g	4d	.
32cc	.	.	.
16.a-	8f	.	.
32b-	.	.	.
=87	=87	=87	=87
8g	4e-	8e-	4E-
16ee-	.	8E-	.
32dd	.	.	.
32ee-	.	.	.
8gg	4.ee-	8r	8r
8g	.	8B-	8E-
8a-	.	4.A-	8F
16ff	8dd	.	8FF
32ee	.	.	.
32ff	.	.	.
8aa-	[4ff	.	8r
8a-	.	8c	8F
=88	=88	=88	=88
8b-	8ff]	4.B-	8G
16gg	8ee-	.	8GG
32ff	.	.	.
32gg	.	.	.
8bb-	4.gg	.	8r
8b-	.	8d-	8G
8cc	.	4.c	8A-
16aa-	8ff	.	8AA-
32gg	.	.	.
32aa-	.	.	.
8ccc	8aa-	.	8r
8ee-	8cc	8f	8A
=89	=89	=89	=89
8dd	8b-	4f	4B-
16dd	8ff	.	.
32cc	.	.	.
32dd	.	.	.
8ff	8aa-	8r	8r
8a-	8dd	8f	8BB-
8g	4ee-	4e-	8E-
8b-	.	.	8EE-
8ee-	8r	4r	[4E-
16g	16ee-	.	.
32f	32dd	.	.
32g	32ee-	.	.
=90	=90	=90	=90
8a-	8ff	8r	8E-]
8aa-	8f	16f	8D
.	.	16e-	.
8r	8a-	4d	4.F
16a-	16ff	.	.
32g	32ee-	.	.
32a-	32ff	.	.
8b-	8gg	8r	.
8bb-	8g	16g	8E-
.	.	16f	.
8r	8b-	4e-	[4G
16b-	16gg	.	.
32a-	32ff	.	.
32b-	32gg	.	.
=91	=91	=91	=91
8cc	8aa-	8r	8G]
8ccc	8a-	16a-	8F
.	.	16g	.
8r	4cc	8f	4.A-
8ccc	.	8e-	.
8dd	4b-	8f	.
8ee-	.	8e-	4G
[4aa-	4cc	4c	.
.	.	.	8F
=92	=92	=92	=92
16.aa-]	4b-	8f	8D
32bb-	.	.	.
8..gg	.	4e-	8E-
.	4a-	.	8C
32aa-	.	.	.
8..ff	.	4d	8D
.	4g	.	8BB-
32gg	.	.	.
8..ee-	.	4c	8C
.	[4f	.	8AA-
32ff	.	.	.
16.ee-	.	8c	8AA
32ff	.	.	.
=93	=93	=93	=93
16dd	2f]	2d	8BB-
16aa-	.	.	.
16ff	.	.	8BB-
16dd	.	.	.
16b-	.	.	8BB-
16a-	.	.	.
16ff	.	.	8BB-
16a-	.	.	.
16g	2g	[2e-	8BB-
16eee-	.	.	.
16bb-	.	.	8BB-
16gg	.	.	.
16ee-	.	.	8BB-
16b-	.	.	.
16g	.	.	8BB-
16e-	.	.	.
=94	=94	=94	=94
16c	2a	2e-]	8BB-
16eee-	.	.	.
16ccc	.	.	8BB-
16aa	.	.	.
16ff	.	.	8BB-
16ee-	.	.	.
16ccc	.	.	8BB-
16ee-	.	.	.
16dd	2a-	2f	8BB-
16aa-	.	.	.
16ff	.	.	8BB-
16dd	.	.	.
16b-	.	.	8BB-
16a-	.	.	.
16ff	.	.	8BB-
16a-	.	.	.
=95	=95	=95	=95
16g	4g	4e-	4E-
16e-	.	.	.
16e-	.	.	.
32d	.	.	.
32e-	.	.	.
16g	4r	4r	4r
16g	.	.	.
16g	.	.	.
32f	.	.	.
32g	.	.	.
16b-	4g	4B-	4E-
16b-	.	.	.
16b-	.	.	.
32a	.	.	.
32b-	.	.	.
16ee-	4r	4r	4r
16ee-	.	.	.
16ee-	.	.	.
32dd	.	.	.
32ee-	.	.	.
=96	=96	=96	=96
16gg	4g	4B-	4E-
16gg	.	.	.
16gg	.	.	.
32ff	.	.	.
32gg	.	.	.
16bb-	4.r	4.r	4.r
16bb-	.	.	.
16bb-	.	.	.
32aa	.	.	.
32bb-	.	.	.
2ddd-	.	.	.
.	8e-	8B-	8G
.	8e-	8B-	8G
.	8e-	8B-	8G
=97	=97	=97	=97
16ccc	4e-	4c	4A-
16ccc	.	.	.
16ccc	.	.	.
32bb-	.	.	.
32ccc	.	.	.
16eee-	4.r	4.r	4.r
16eee-	.	.	.
16eee-	.	.	.
32ddd	.	.	.
32eee-	.	.	.
4.ggg	.	.	.
.	8e-	8c	8A
.	8e-	8c	8A
8A	8A	8A	8A
=98	=98	=98	=98
4b-	8B-	8B-	8B-
.	8e-	8G	8BB-
16a-	8e-	8G	8BB-
16g	.	.	.
16f	8e-	8G	8BB-
16e-	.	.	.
2e-	8e-	8G	8BB-
.	8e-	8G	8BB-
.	8e-	8G	8BB-
.	8e-	8G	8BB-
=99	=99	=99	=99
4b-	8e-	8G-	8BB-
.	8e-	8G-	8BB-
16a-	8e-	8G-	8BB-
16g-	.	.	.
16f	8e-	8G-	8BB-
16e-	.	.	.
2e-	8e-	8G-	8BB-
.	8e-	8G-	8BB-
.	8e-	8G-	8BB-
.	8e-	8G-	8BB-
=100	=100	=100	=100
[3..f-	8d-	8G-	8BB-
.	8d-	8G-	8BB-
.	8d-	8G-	8BB-
.	8d-	8G-	8BB-
.	8d-	8G-	8BB-
24f-]	.	.	.
8a-	8d-	8G-	8BB-
8g-	8d-	8G-	8BB-
8f-	8d-	8G-	8BB-
=101	=101	=101	=101
8e-	4c-	4G-	2.C-
4e-	.	.	.
.	4G	4G	.
4e-	.	.	.
.	4A-	4A-	.
4e-	.	.	.
.	4A	4F	4C
8e-	.	.	.
=102	=102	=102	=102
24d	8B-	8F	8BB-
24f	.	.	.
24a-	.	.	.
24f	8d	8F	8BB-
24d	.	.	.
24B-	.	.	.
24A-	8d	8F	8BB-
24B-	.	.	.
24d	.	.	.
24f	8d	8F	8BB-
24d	.	.	.
24B-	.	.	.
24d	8d	8F	8BB-
24f	.	.	.
24a-	.	.	.
24f	8d	8F	8BB-
24d	.	.	.
24B-	.	.	.
24A-	8d	8F	8BB-
24B-	.	.	.
24d	.	.	.
24f	8d	8F	8BB-
24d	.	.	.
24B-	.	.	.
=103	=103	=103	=103
24d	8d	8F	8AA-
24f	.	.	.
24a-	.	.	.
24f	8d	8F	8AA-
24d	.	.	.
24B-	.	.	.
24A-	8d	8F	8AA-
24B-	.	.	.
24d	.	.	.
24f	8d	8F	8AA-
24d	.	.	.
24B-	.	.	.
24d	8d	8F	8AA-
24f	.	.	.
24a-	.	.	.
24f	8d	8F	8AA-
24d	.	.	.
24B-	.	.	.
24A-	8d	8F	8AA-
24B-	.	.	.
24d	.	.	.
24f	8d	8F	8AA-
24d	.	.	.
24B-	.	.	.
=104	=104	=104	=104
16G	4e-	4E-	4GG
16e-	.	.	.
16e-	.	.	.
32d	.	.	.
32e-	.	.	.
16g	4r	4r	4r
16g	.	.	.
16g	.	.	.
32f	.	.	.
32g	.	.	.
16b-	4e-	4B-	4GG
16b-	.	.	.
16b-	.	.	.
32a	.	.	.
32b-	.	.	.
16ee-	4r	4r	4r
16ee-	.	.	.
16ee-	.	.	.
32dd	.	.	.
32ee-	.	.	.
=105	=105	=105	=105
16gg	4e-	4B-	4GG
16gg	.	.	.
16gg	.	.	.
32ff	.	.	.
32gg	.	.	.
16bb-	4r	4r	4r
16bb-	.	.	.
16bb-	.	.	.
32aa	.	.	.
32bb-	.	.	.
16eee-	4e-	4B-	4GG
16eee-	.	.	.
16eee-	.	.	.
32ddd	.	.	.
32eee-	.	.	.
8ggg	8r	8r	8r
8A	8A	8A	8AA
=106	=106	=106	=106
2B-	8B-	8B-	4BB-
.	8b-	8g	.
.	8a-	8f	4r
.	8g	8e-	.
2f	8r	8r	8BB-
.	8f	8d	8r
.	8r	8r	8BB-
.	8a-	8d	8r
=107	=107	=107	=107
8e-	8g	4e-	4E-
4ee-	4g	.	.
.	.	4.r	4.r
24cc	24a-	.	.
24b-	24g	.	.
24a-	24f	.	.
8g	8e-	.	.
4b-	4b-	4b-	4B-
24a-	24a-	24a-	24A-
24f	24f	24f	24F
24d	24d	24d	24D
=108	=108	=108	=108
8e-	8e-	4e-	4E-
4ee-	4g	.	.
.	.	4.r	4.r
24cc	24a-	.	.
24b-	24g	.	.
24a-	24f	.	.
8g	8e-	.	.
4a-	4a-	4a-	4A-
24f	24f	24f	24F
24d	24d	24d	24D
24B-	24B-	24B-	24BB-
=109	=109	=109	=109
8e-	8e-	8e-	8E-
24a-	8f	8A-	8BB-
24f	.	.	.
24d	.	.	.
8e-	8e-	8G	8E-
24a-	8f	8F	8BB-
24f	.	.	.
24d	.	.	.
4e-	4e-	4G	4E-
4r	4r	4r	4r
==	==	==	==
*-	*-	*-	*-
!!!RWG1: This file contains only pitch and duration data.
!!!RWG2: Transposing instruments are not transposed.
!!!RWG3: Spines may have incompatible meters.
!!!RWG4: Durations of rests and tied notes may be interpreted.
!!!RWG: Key is interpreted using the Humdrum key tool.
!!!AFT: stage1
!!!END: 1997/04/15
!!format changes:
!!content changes:
!!public access: complete
!!!KEY: 2409001381
!!!EMD: Converted from MuseData to Humdrum Dec 16, 2000, by Andreas Kornstaedt using muse2kern.
